X:116
T:Gipsy Hornpipe. Le4.116
T:Worster Hp,aka. Le4.116
M:C|
L:1/8
Q:1/4=120
B:L.Leadley MS#4 c1850
Z:Village Music Project, 2016 Ruairidh Greig
K:A
E|A2AA Acec|defg (ag)af|ecAc ecAc|dBGB dBGB|
A2AB Acec|defg agag|eafd cABG|A2A2A2:|
|:(cd)|efed ceae|(fe).f.ga2 ag|faea faea|fgag edcB|
A2AB Acec|defg agaf|eagd cABG|A2A2A2:|

